;FLAVOR:Marlin
;TIME:411
;Filament used: 0.400558m
;Layer height: 0.2
;MINX:75.929
;MINY:92.056
;MINZ:0.2
;MAXX:134.065
;MAXY:117.939
;MAXZ:5
;Generated with Cura_SteamEngine main
M140 S60
M105
M190 S60
M104 S200
M105
M109 S200
M82 ;absolute extrusion mode
G21 ;metric values
G90 ;absolute positioning
M82 ;set extruder to absolute mode
M107 ;start with the fan off
G28 X0 Y0 ;move X/Y to min endstops
G28 Z0 ;move Z to min endstops
G1 Z15.0 F100 ;move the platform down 15mm
G92 E0 ;zero the extruded length
G1 F200 E3 ;extrude 3mm of feed stock
G92 E0 ;zero the extruded length again
G1 F100
G0 Y20 F100
M117 Printing...
G5
G92 E0
G92 E0
G1 F2400 E-6
;LAYER_COUNT:25
;LAYER:0
M107
M204 S3000
M205 X10 Y10
G1 F600 Z0.275
G0 F3000 X79.709 Y96.719 Z0.275
G1 F600 Z0.2
G0 F3000 X75.929 Y104.318
M204 S1800
M205 X8 Y8
;TYPE:SKIRT
G1 F2400 E0
G1 X75.969 Y103.601 E0.03344
G1 X76.035 Y103.017 E0.06081
G1 X76.155 Y102.312 E0.0941
G1 X76.426 Y101.426 E0.13725
G1 X76.624 Y100.934 E0.16194
G1 X76.825 Y100.476 E0.18523
G1 X77.299 Y99.564 E0.23309
G1 X77.778 Y98.855 E0.27293
G1 X78.175 Y98.323 E0.30384
G1 X78.708 Y97.684 E0.34259
G1 X79.246 Y97.14 E0.37822
G1 X79.709 Y96.719 E0.40736
G1 X80.151 Y96.356 E0.43399
G1 X80.707 Y95.948 E0.4661
G1 X81.214 Y95.616 E0.49432
G1 X81.842 Y95.254 E0.52807
G1 X82.752 Y94.799 E0.57545
G1 X83.674 Y94.451 E0.62134
G1 X84.44 Y94.231 E0.65845
G1 X85.184 Y94.079 E0.69381
G1 X85.978 Y93.959 E0.7312
G1 X89.214 Y93.595 E0.88283
G1 X91.851 Y93.221 E1.00685
G1 X94.624 Y92.746 E1.13785
G1 X95.966 Y92.498 E1.2014
G1 X97.509 Y92.261 E1.27409
G1 X98.431 Y92.167 E1.31724
G1 X99.356 Y92.096 E1.36044
G1 X100.93 Y92.056 E1.43376
G1 X102.609 Y92.11 E1.51198
G1 X103.562 Y92.156 E1.55641
G1 X106.905 Y92.211 E1.71209
G1 X110.393 Y92.186 E1.87451
G1 X111.668 Y92.204 E1.93389
G1 X112.78 Y92.254 E1.98572
G1 X113.703 Y92.335 E2.02886
G1 X114.771 Y92.495 E2.07915
G1 X117.111 Y93.008 E2.1907
G1 X119.761 Y93.528 E2.31645
G1 X121.552 Y93.834 E2.40105
G1 X124.349 Y94.286 E2.53298
G1 X125.164 Y94.496 E2.57217
G1 X125.976 Y94.757 E2.61189
G1 X126.531 Y94.974 E2.63963
G1 X127.432 Y95.361 E2.68529
G1 X128.212 Y95.775 E2.72641
G1 X128.902 Y96.183 E2.76374
G1 X129.406 Y96.515 E2.79184
G1 X129.817 Y96.811 E2.81543
G1 X130.278 Y97.17 E2.84263
G1 X130.695 Y97.523 E2.86807
G1 X131.236 Y98.024 E2.90241
G1 X131.781 Y98.596 E2.9392
G1 X132.118 Y98.996 E2.96355
G1 X132.651 Y99.727 E3.00568
G1 X132.973 Y100.242 E3.03396
G1 X133.317 Y100.869 E3.06726
G1 X133.721 Y101.897 E3.11869
G1 X133.947 Y102.805 E3.16226
G1 X134.042 Y103.514 E3.19557
G1 X134.065 Y104.319 E3.23307
G1 X133.998 Y105.192 E3.27384
G1 X133.864 Y105.894 E3.30712
G1 X133.653 Y106.577 E3.34041
G1 X133.38 Y107.228 E3.37328
G1 X132.978 Y107.973 E3.4127
G1 X132.57 Y108.56 E3.44598
G1 X132.1 Y109.099 E3.47928
G1 X131.529 Y109.634 E3.51572
G1 X130.974 Y110.086 E3.54905
G1 X130.373 Y110.473 E3.58233
G1 X129.782 Y110.77 E3.61313
G1 X126.803 Y112.075 E3.76457
G1 X124.427 Y113.197 E3.88692
G1 X122.032 Y114.412 E4.01197
G1 X121.357 Y114.772 E4.0476
G1 X120.685 Y115.112 E4.08266
G1 X120.001 Y115.429 E4.11777
G1 X119.475 Y115.641 E4.14418
G1 X118.501 Y115.984 E4.19226
G1 X117.789 Y116.185 E4.22671
G1 X117.293 Y116.309 E4.25052
G1 X116.425 Y116.491 E4.29181
G1 X115.115 Y116.676 E4.35342
G1 X113.651 Y116.83 E4.42196
G1 X112.912 Y116.89 E4.45649
G1 X110.322 Y117.176 E4.57782
G1 X107.371 Y117.59 E4.71658
G1 X105.56 Y117.869 E4.8019
G1 X104.849 Y117.939 E4.83517
G1 X104.133 Y117.928 E4.86851
G1 X103.581 Y117.865 E4.89438
G1 X101.978 Y117.61 E4.96996
G1 X99.378 Y117.235 E5.09228
G1 X96.731 Y116.93 E5.21635
G1 X95.066 Y116.791 E5.29415
G1 X93.821 Y116.666 E5.35242
G1 X92.58 Y116.477 E5.41087
G1 X92.078 Y116.379 E5.43468
G1 X91.357 Y116.209 E5.46918
G1 X90.517 Y115.96 E5.50997
G1 X89.749 Y115.689 E5.5479
G1 X89.188 Y115.461 E5.57609
G1 X88.66 Y115.209 E5.60334
G1 X87.697 Y114.71 E5.65384
G1 X85.242 Y113.48 E5.7817
G1 X82.825 Y112.353 E5.90588
G1 X80.798 Y111.471 E6.00881
G1 X80.178 Y111.182 E6.04067
G1 X79.549 Y110.841 E6.07398
G1 X78.659 Y110.203 E6.12497
G1 X77.943 Y109.54 E6.17041
G1 X77.476 Y108.998 E6.20372
G1 X77.073 Y108.408 E6.23699
G1 X76.577 Y107.442 E6.28756
G1 X76.243 Y106.531 E6.33274
G1 X76.075 Y105.836 E6.36603
G1 X75.969 Y105.033 E6.40375
G1 X75.929 Y104.318 E6.43709
M204 S3000
M205 X10 Y10
G0 F3000 X76.489 Y104.288
M204 S1800
M205 X8 Y8
G1 F2400 X76.526 Y103.664 E6.4662
G1 X76.592 Y103.08 E6.49357
G1 X76.708 Y102.407 E6.52537
G1 X76.949 Y101.628 E6.56334
G1 X77.136 Y101.159 E6.58685
G1 X77.337 Y100.701 E6.61014
G1 X77.778 Y99.853 E6.65464
G1 X78.227 Y99.19 E6.69193
G1 X78.624 Y98.658 E6.72284
G1 X79.032 Y98.169 E6.75249
G1 X79.56 Y97.608 E6.78837
G1 X80.065 Y97.152 E6.82005
G1 X80.507 Y96.789 E6.84668
G1 X81.014 Y96.416 E6.87599
G1 X81.521 Y96.084 E6.90421
G1 X82.094 Y95.754 E6.935
G1 X82.953 Y95.321 E6.97979
G1 X83.834 Y94.988 E7.02365
G1 X84.574 Y94.775 E7.05951
G1 X85.272 Y94.632 E7.09268
G1 X86.041 Y94.516 E7.1289
G1 X89.281 Y94.152 E7.28071
G1 X91.92 Y93.778 E7.40482
G1 X94.697 Y93.302 E7.53602
G1 X96.052 Y93.051 E7.60019
G1 X97.19 Y92.874 E7.65381
G1 X97.864 Y92.788 E7.68545
G1 X98.634 Y92.712 E7.72148
G1 X99.537 Y92.652 E7.76362
G1 X101.029 Y92.617 E7.83311
G1 X102.495 Y92.666 E7.90141
G1 X103.526 Y92.716 E7.94948
G1 X106.896 Y92.771 E8.10642
G1 X110.397 Y92.746 E8.26945
G1 X111.646 Y92.763 E8.32761
G1 X112.467 Y92.795 E8.36587
G1 X113.568 Y92.881 E8.41729
G1 X114.674 Y93.046 E8.46936
G1 X117.016 Y93.561 E8.58102
G1 X119.644 Y94.076 E8.70572
G1 X121.46 Y94.387 E8.79151
G1 X124.249 Y94.837 E8.92306
G1 X124.994 Y95.03 E8.95889
G1 X125.787 Y95.285 E8.99768
G1 X126.309 Y95.488 E9.02376
G1 X126.974 Y95.774 E9.05747
G1 X127.543 Y96.044 E9.08679
G1 X128.429 Y96.542 E9.13412
G1 X129.291 Y97.11 E9.18219
G1 X130.131 Y97.764 E9.23176
G1 X130.855 Y98.435 E9.27773
G1 X131.353 Y98.957 E9.31132
G1 X131.69 Y99.357 E9.33567
G1 X132.176 Y100.024 E9.3741
G1 X132.498 Y100.539 E9.40238
G1 X132.825 Y101.138 E9.43416
G1 X133.188 Y102.07 E9.48074
G1 X133.403 Y102.94 E9.52246
G1 X133.488 Y103.618 E9.55428
G1 X133.505 Y104.321 E9.58703
G1 X133.439 Y105.148 E9.62566
G1 X133.306 Y105.818 E9.65746
G1 X133.095 Y106.468 E9.68929
G1 X132.811 Y107.105 E9.72176
G1 X132.485 Y107.706 E9.7536
G1 X132.091 Y108.264 E9.78541
G1 X131.339 Y109.067 E9.83663
G1 X130.62 Y109.651 E9.87976
G1 X130.043 Y110.016 E9.91156
G1 X129.557 Y110.257 E9.93682
G1 X126.589 Y111.557 E10.08769
G1 X124.171 Y112.699 E10.21221
G1 X121.782 Y113.911 E10.33695
G1 X121.105 Y114.272 E10.37268
G1 X120.433 Y114.612 E10.40775
G1 X119.769 Y114.919 E10.44181
G1 X119.289 Y115.113 E10.46592
G1 X118.344 Y115.446 E10.51257
G1 X117.653 Y115.642 E10.54602
G1 X117.157 Y115.766 E10.56982
G1 X116.331 Y115.939 E10.60912
G1 X115.056 Y116.119 E10.66908
G1 X113.605 Y116.272 E10.73702
G1 X112.874 Y116.332 E10.77117
G1 X110.218 Y116.625 E10.89559
G1 X107.364 Y117.025 E11.02979
G1 X105.475 Y117.316 E11.11879
G1 X104.795 Y117.38 E11.15059
G1 X103.992 Y117.362 E11.18799
G1 X102.135 Y117.067 E11.27554
G1 X99.453 Y116.68 E11.40172
G1 X96.78 Y116.372 E11.52701
G1 X95.122 Y116.234 E11.60448
G1 X93.901 Y116.112 E11.66162
G1 X92.44 Y115.889 E11.73044
G1 X91.48 Y115.663 E11.77636
G1 X90.547 Y115.377 E11.8218
G1 X89.935 Y115.161 E11.85202
G1 X89.423 Y114.953 E11.87775
G1 X88.918 Y114.712 E11.90381
G1 X87.932 Y114.201 E11.95552
G1 X85.48 Y112.972 E12.08324
G1 X83.083 Y111.855 E12.20637
G1 X80.561 Y110.755 E12.33449
G1 X79.817 Y110.349 E12.37396
G1 X79.007 Y109.764 E12.42049
G1 X78.325 Y109.129 E12.46388
G1 X77.883 Y108.608 E12.49569
G1 X77.505 Y108.039 E12.5275
G1 X77.082 Y107.202 E12.57117
G1 X76.771 Y106.34 E12.61384
G1 X76.615 Y105.674 E12.64569
G1 X76.525 Y104.97 E12.67874
G1 X76.489 Y104.288 E12.71054
M204 S3000
M205 X10 Y10
G0 F3000 X77.049 Y104.259
M204 S1800
M205 X8 Y8
G1 F2400 X77.082 Y103.727 E12.73536
G1 X77.148 Y103.143 E12.76272
G1 X77.261 Y102.503 E12.79299
G1 X77.516 Y101.687 E12.8328
G1 X77.85 Y100.926 E12.87149
G1 X78.174 Y100.304 E12.90415
G1 X78.675 Y99.525 E12.94728
G1 X79.072 Y98.993 E12.97819
G1 X79.442 Y98.551 E13.00503
G1 X79.955 Y98.005 E13.03991
G1 X80.42 Y97.585 E13.06909
G1 X80.862 Y97.222 E13.09572
G1 X81.32 Y96.885 E13.1222
G1 X81.827 Y96.553 E13.15042
G1 X82.345 Y96.254 E13.17827
G1 X83.188 Y95.829 E13.22223
G1 X83.994 Y95.524 E13.26236
G1 X85.105 Y95.224 E13.31594
G1 X86.103 Y95.072 E13.36295
G1 X89.357 Y94.706 E13.51543
G1 X92.024 Y94.328 E13.64085
G1 X94.824 Y93.848 E13.77314
G1 X96.139 Y93.605 E13.8354
G1 X97.44 Y93.405 E13.8967
G1 X98.059 Y93.33 E13.92573
G1 X98.675 Y93.27 E13.95455
G1 X99.552 Y93.212 E13.99547
G1 X101.017 Y93.177 E14.06371
G1 X102.555 Y93.229 E14.13537
G1 X103.521 Y93.276 E14.1804
G1 X106.888 Y93.331 E14.3372
G1 X110.52 Y93.306 E14.50633
G1 X111.49 Y93.319 E14.5515
G1 X112.446 Y93.355 E14.59605
G1 X113.4 Y93.432 E14.64061
G1 X113.928 Y93.497 E14.66539
G1 X114.567 Y93.598 E14.69551
G1 X116.087 Y93.925 E14.76791
G1 X116.929 Y94.115 E14.8081
G1 X119.52 Y94.623 E14.93104
G1 X121.378 Y94.941 E15.01882
G1 X124.135 Y95.386 E15.14886
G1 X124.957 Y95.597 E15.18837
G1 X125.905 Y95.924 E15.23507
G1 X126.955 Y96.376 E15.2883
G1 X127.658 Y96.748 E15.32533
G1 X128.286 Y97.119 E15.3593
G1 X128.965 Y97.566 E15.39715
G1 X129.771 Y98.194 E15.44473
G1 X130.475 Y98.846 E15.48941
G1 X130.925 Y99.318 E15.51978
G1 X131.262 Y99.718 E15.54413
G1 X131.701 Y100.321 E15.57886
G1 X132.023 Y100.836 E15.60714
G1 X132.333 Y101.407 E15.6374
G1 X132.656 Y102.246 E15.67926
G1 X132.858 Y103.074 E15.71895
G1 X132.933 Y103.719 E15.74918
G1 X132.933 Y104.455 E15.78345
G1 X132.88 Y105.103 E15.81373
G1 X132.747 Y105.739 E15.84398
G1 X132.39 Y106.71 E15.89216
G1 X131.992 Y107.437 E15.93075
G1 X131.613 Y107.965 E15.96101
G1 X130.951 Y108.663 E16.00581
G1 X130.268 Y109.215 E16.0467
G1 X129.612 Y109.621 E16.08262
G1 X126.346 Y111.052 E16.24866
G1 X123.929 Y112.194 E16.37313
G1 X121.533 Y113.409 E16.49823
G1 X120.962 Y113.715 E16.52839
G1 X120.18 Y114.112 E16.56923
G1 X119.347 Y114.498 E16.61198
G1 X118.319 Y114.86 E16.66273
G1 X117.716 Y115.045 E16.6921
G1 X117.022 Y115.222 E16.72545
G1 X116.242 Y115.385 E16.76255
G1 X115.2 Y115.537 E16.81159
G1 X113.688 Y115.701 E16.88241
G1 X112.837 Y115.772 E16.92217
G1 X110.178 Y116.065 E17.04673
G1 X107.208 Y116.482 E17.18638
G1 X105.39 Y116.762 E17.27204
G1 X104.743 Y116.822 E17.30229
G1 X104.01 Y116.798 E17.33644
G1 X102.229 Y116.515 E17.42041
G1 X99.493 Y116.12 E17.54913
G1 X96.858 Y115.816 E17.67264
G1 X95.178 Y115.677 E17.75114
G1 X93.984 Y115.558 E17.80701
G1 X92.537 Y115.337 E17.87517
G1 X91.63 Y115.123 E17.91857
G1 X90.734 Y114.849 E17.96219
G1 X90.122 Y114.633 E17.99241
G1 X89.659 Y114.444 E18.0157
G1 X89.175 Y114.215 E18.04063
G1 X88.135 Y113.676 E18.09518
G1 X85.745 Y112.478 E18.21966
G1 X83.291 Y111.334 E18.34574
G1 X81.245 Y110.444 E18.44963
G1 X80.656 Y110.169 E18.4799
G1 X80.087 Y109.856 E18.51014
G1 X79.357 Y109.327 E18.55212
G1 X78.708 Y108.719 E18.59353
G1 X78.292 Y108.22 E18.62378
G1 X77.941 Y107.674 E18.654
G1 X77.588 Y106.957 E18.69122
G1 X77.299 Y106.15 E18.73113
G1 X77.093 Y105.119 E18.78009
G1 X77.049 Y104.259 E18.82019
M204 S3000
M205 X10 Y10
G1 F2400 E12.82019
;MESH:cinnamoroll.stl
G0 F3000 X81.662 Y104.403
G0 X82.739 Y104.286
G0 X92.24 Y103.78
M204 S1800
M205 X8 Y8
;TYPE:WALL-INNER
G1 F2400 E18.82019
G1 F1500 X92.039 Y103.664 E18.83099
G1 X91.376 Y103.145 E18.8702
G1 X90.826 Y102.794 E18.90058
G1 X90.091 Y102.405 E18.9393
G1 X89.251 Y102.05 E18.98177
G1 X88.35 Y101.788 E19.02546
G1 X87.428 Y101.674 E19.06872
G1 X86.98 Y101.686 E19.08959
G1 X86.534 Y101.749 E19.11056
G1 X85.985 Y101.895 E19.13701
G1 X85.468 Y102.145 E19.16375
G1 X85.072 Y102.397 E19.18561
G1 X84.706 Y102.7 E19.20773
G1 X84.376 Y103.04 E19.2298
G1 X84.104 Y103.395 E19.25062
G1 X83.9 Y103.741 E19.26932
G1 X83.754 Y104.092 E19.28702
G1 X83.734 Y104.246 E19.29426
G1 X84.308 Y104.394 E19.32186
G1 X85.672 Y104.523 E19.38565
G1 X86.25 Y104.592 E19.41276
G1 X87.174 Y104.755 E19.45645
G1 X88.004 Y105.078 E19.49792
G1 X88.753 Y105.461 E19.53709
G1 X89.553 Y106.113 E19.58515
G1 X90.597 Y107.147 E19.65357
G1 X91.125 Y107.61 E19.68627
G1 X91.721 Y108.02 E19.71995
G1 X92.409 Y108.364 E19.75577
G1 X92.992 Y108.568 E19.78453
G1 X93.86 Y108.793 E19.82629
G1 X94.784 Y108.934 E19.86981
G1 X95.564 Y108.999 E19.90626
G1 X96.308 Y108.999 E19.9409
G1 X96.745 Y108.985 E19.96126
G1 X96.661 Y108.92 E19.9662
G1 X95.932 Y108.267 E20.01178
G1 X95.309 Y107.63 E20.05327
G1 X94.75 Y106.999 E20.09252
G1 X94.165 Y106.266 E20.13619
G1 X93.623 Y105.504 E20.17973
G1 X93.107 Y104.667 E20.22552
G1 X92.736 Y103.911 E20.26473
G1 X92.24 Y103.78 E20.28862
M204 S3000
M205 X10 Y10
G0 F3000 X93.106 Y103.369
G0 X93.297 Y102.532
M204 S1800
M205 X8 Y8
;TYPE:WALL-OUTER
G1 F938.5 X93.255 Y102.077 E20.32262
G1 F965.5 X93.351 Y101.416 E20.37094
G1 F964.4 X93.61 Y100.881 E20.41399
G1 F956.7 X94.058 Y100.396 E20.46219
G1 F955.6 X94.83 Y99.918 E20.52856
G1 F949.2 X95.582 Y99.616 E20.58819
G1 F948.1 X96.357 Y99.392 E20.64762
G1 F951.3 X97.201 Y99.213 E20.71097
G1 F954.5 X98.306 Y99.053 E20.79267
G1 F952.4 X98.822 Y98.998 E20.83072
G1 F947 X99.58 Y98.934 E20.88683
G1 F948.1 X100.113 Y98.905 E20.92615
G1 F957.8 X101.088 Y98.89 E20.99726
G1 F962.2 X101.799 Y98.924 E21.04893
G1 F968.9 X102.207 Y98.973 E21.07856
M204 S3000
M205 X10 Y10
G0 F3000 X102.136 Y98.973
G0 X101.074 Y98.887
G0 X98.342 Y99.049
G0 X96.454 Y99.374
G0 X95.567 Y99.625
G0 X94.774 Y99.949
G0 X93.635 Y100.836
G0 X93.25 Y102.053
G0 X93.586 Y103.462
G0 X94.399 Y104.937
G0 X95.464 Y106.353
G0 X96.63 Y107.602
G0 X97.893 Y108.666
G0 X99.291 Y109.544
G0 X100.24 Y110.007
G0 X102.15 Y110.641
G0 X104.054 Y111.028
G0 X106.457 Y110.782
G0 X108.184 Y110.265
G0 X109.827 Y109.549
G0 X111.358 Y108.639
G0 X112.909 Y107.386
G0 X114.124 Y105.944
G0 X114.899 Y104.579
G0 X115.396 Y103.144
G0 X115.604 Y101.762
G0 X115.447 Y100.528
G0 X114.926 Y99.824
G0 X113.965 Y99.336
G0 X106.372 Y99.075
M204 S1800
M205 X8 Y8
G1 F1001.2 X106.669 Y99.047 E21.09937
G1 F955.6 X107.245 Y99.053 E21.14147
G1 F951.3 X110.109 Y99.028 E21.35176
G1 F953.5 X111.26 Y99.028 E21.43607
G1 F954.5 X112.16 Y99.065 E21.50199
G1 F953.5 X112.924 Y99.127 E21.55814
G1 F952.4 X113.631 Y99.24 E21.61065
G1 F944.9 X114.247 Y99.426 E21.65821
G1 F931.3 X114.875 Y99.759 E21.71152
G1 F929.2 X115.131 Y99.996 E21.73775
G1 F938.5 X115.456 Y100.546 E21.78529
G1 F948.1 X115.583 Y101.105 E21.82752
G1 F965.5 X115.592 Y101.787 E21.87686
G1 X115.53 Y102.486 E21.92763
M204 S3000
M205 X10 Y10
G0 F3000 X115.745 Y103.443
G0 X120.408 Y105.091
M204 S1800
M205 X8 Y8
;TYPE:WALL-INNER
G1 F1500 X120.954 Y104.786 E21.95675
G1 X121.613 Y104.52 E21.98984
G1 X122.311 Y104.336 E22.02345
G1 X123.009 Y104.212 E22.05646
G1 X123.645 Y104.13 E22.08632
G1 X124.995 Y104 E22.14948
G1 X125.576 Y103.931 E22.17672
G1 X126.026 Y103.854 E22.19798
G1 X125.538 Y103.355 E22.23048
G1 X125.102 Y103.012 E22.25631
G1 X124.61 Y102.689 E22.28371
G1 X124.084 Y102.405 E22.31155
G1 X123.539 Y102.165 E22.33928
G1 X122.865 Y101.939 E22.37238
G1 X122.223 Y101.826 E22.40273
G1 X121.611 Y101.774 E22.43133
G1 X120.767 Y101.824 E22.4707
G1 X119.713 Y102.108 E22.52153
G1 X119.107 Y102.337 E22.5517
G1 X118.116 Y102.835 E22.60334
G1 X117.533 Y103.173 E22.63472
G1 X116.684 Y103.723 E22.68182
G1 X116.368 Y103.861 E22.69788
G1 X116.187 Y103.859 E22.70631
G1 X116.07 Y104.234 E22.7246
G1 X115.745 Y105.038 E22.76498
G1 X115.413 Y105.695 E22.79926
G1 X114.949 Y106.445 E22.84032
G1 X114.394 Y107.174 E22.88299
G1 X113.595 Y108.059 E22.93851
G1 X112.464 Y109.043 E23.00831
G1 X112.959 Y109.037 E23.03136
G1 X113.501 Y109.012 E23.05663
G1 X114.039 Y108.965 E23.08178
G1 X114.578 Y108.897 E23.10707
G1 X115.107 Y108.808 E23.13205
G1 X115.874 Y108.642 E23.16859
G1 X116.728 Y108.367 E23.21037
G1 X117.493 Y107.996 E23.24996
G1 X118.059 Y107.587 E23.28248
G1 X118.504 Y107.126 E23.31231
G1 X119.383 Y105.99 E23.37919
G1 X119.944 Y105.447 E23.41555
G1 X120.408 Y105.091 E23.44278
M204 S3000
M205 X10 Y10
G0 F3000 X116.259 Y103.402
G0 X116.209 Y103.324
M204 S1800
M205 X8 Y8
G1 F1500 X115.765 Y103.318 E23.46346
G1 X115.573 Y103.959 E23.49462
